X: 39242
T: Tae In The Bog
R: jig
M: 6/8
K: Cmajor
A,|:G,CC CB,C|EGG G2A|GEA GEC|A,DD DCA,|
G,CC CB,C|EGG G2A|GEA GEC|A,CB, C2:|
E|:GAB cGE|ABA GEC|GAB cGE|ABA A2E|
GAB cGE|ABA GEC|CDE GEC|A,CB, C2:|

